!!!SOCIAL_FUNCTION:	dance songs
!!!PDT:	1913
!!!OTL: No_166_I_Carry_It_Away.krn
!!!REG: Great_Lakes
!!!LANG: Non-Tone
!!!LING_GROUP: Algonquin
**kern	**kern
*staff2	*staff1
=1-	=1-
*clefF4	*clefF4
*k[f#]	*k[f#]
*M3/4	*M3/4
8GG/L	4G\
8GG/J	.
8GG/L	8d\L
8GG/J	16B\L
.	16B\JJ
8GG/L	4d\
8GG/J	.
=2	=2
.	dq/
2.r	8B\L
.	8G\J
.	2G\
=3	=3
2.r	8.d\L
.	16B\Jk
.	[8B\
.	32B\LLL]
.	32c\
.	32B\
.	32A\JJJ
.	8.B\L
.	16B\Jk
=4	=4
2.r	8G\L
.	8E\J
.	2E\
=5||	=5||
*M2/4	*M2/4
2r	8E\L
.	8G\J
.	8G\L
.	8A\J
=6||	=6||
*M3/4	*M3/4
2.r	8G\L
.	8G\J
.	2G\
=7	=7
2.r	8G\L
.	16d\L
.	16d\JJ
.	8d\L
.	8B\J
.	4d\
=8||	=8||
*M2/4	*M2/4
2r	8A\L
.	16G\L
.	16G\JJ
.	8G\L
.	8G\J
=9||	=9||
*M3/4	*M3/4
2.r	8d\L
.	8B\J
.	cq/
.	8B\L
.	8A\J
.	4B\
=10	=10
.	Bq/
2.r	8G\L
.	8E\J
.	2E\
=11||	=11||
*M2/4	*M2/4
2r	8E\L
.	8G\J
.	8G\L
.	8A\J
=12||	=12||
*M3/4	*M3/4
2.r	8G\L
.	8G\J
.	2G\
==	==
*-	*-
